X: 203
T: Haste to the wedding
C: anon.
O: Ireland
B: Francis O'Neill: "The Dance Music of Ireland" (1907) no. 203
R: Double jig
Z: Transcribed by Frank Nordberg - http://www.musicaviva.com
F: http://www.musicaviva.com/abc/tunes/ireland/oneill-1001/oneill-1001-020
3.abc
M: 6/8
L: 1/8
K: D
A|AFA Agf|ede fdB|AFA AdF|EFE E2A|AFA Agf|ede fdB|A2g (f<a)f|ded d2:|
|:a|afa afa|bgb bgb|afa agf|efe efg|a3 f3|ede fdB|A2 g (f<a)d|ded d2:|
W:
W:
W: From Musica Viva - http://www.musicaviva.com
W: the Internet center for free sheet music downloads.


